preferences/24/preferences-security.svg

<!-- Created with Inkscape (http://www.inkscape.org/) -->
<svg xmlns:inkscape="http://www.inkscape.org/namespaces/inkscape" xmlns:sodipodi="http://sodipodi.sourceforge.net/DTD/sodipodi-0.dtd" xmlns:xlink="http://www.w3.org/1999/xlink" xmlns="http://www.w3.org/2000/svg" xmlns:svg="http://www.w3.org/2000/svg" width="24" height="24" version="1.1" viewBox="0 0 24 24" id="svg22" sodipodi:docname="preferences-security.svg" inkscape:version="1.1.2 (0a00cf5339, 2022-02-04)">
  <sodipodi:namedview id="namedview24" pagecolor="#ffffff" bordercolor="#666666" borderopacity="1.0" inkscape:showpageshadow="2" inkscape:pageopacity="0.0" inkscape:pagecheckerboard="0" inkscape:deskcolor="#d1d1d1" showgrid="false" inkscape:zoom="25.62" inkscape:cx="-2.0296643" inkscape:cy="16.783763" inkscape:window-width="3440" inkscape:window-height="1356" inkscape:window-x="0" inkscape:window-y="0" inkscape:window-maximized="1" inkscape:current-layer="svg22" inkscape:pageshadow="2"/>
  <defs id="defs12">
    <linearGradient inkscape:collect="always" id="linearGradient917">
      <stop style="stop-color:#000000;stop-opacity:0.99607843" offset="0" id="stop913"/>
      <stop style="stop-color:#353a3f;stop-opacity:0.99607843" offset="1" id="stop915"/>
    </linearGradient>
    <linearGradient id="linearGradient1005-3-3" x1="5.2535" x2="9.3823996" y1="15.383" y2="2.9421" gradientTransform="matrix(0.99999,0,0,0.99999,1.632,-0.61743)" gradientUnits="userSpaceOnUse">
      <stop stop-color="#fa8200" offset="0" id="stop2"/>
      <stop stop-color="#ff9600" offset=".36953" id="stop4"/>
      <stop stop-color="#ffb400" offset="1" id="stop6"/>
    </linearGradient>
    <filter id="filter4014" x="-0.062499933" y="-0.057692993" width="1.1249999" height="1.115386" color-interpolation-filters="sRGB">
      <feGaussianBlur stdDeviation="1.093751" id="feGaussianBlur9"/>
    </filter>
    <linearGradient inkscape:collect="always" xlink:href="#linearGradient3487" id="linearGradient3403" gradientUnits="userSpaceOnUse" x1="6.9491749" y1="4.5549412" x2="11.215498" y2="59.052471"/>
    <linearGradient id="linearGradient3487">
      <stop style="stop-color:#32373c;stop-opacity:1" offset="0" id="stop3481"/>
      <stop id="stop3483" offset="0.36804965" style="stop-color:#1a1a1a;stop-opacity:1"/>
      <stop style="stop-color:#31363b;stop-opacity:1" offset="1" id="stop3485"/>
    </linearGradient>
    <linearGradient inkscape:collect="always" xlink:href="#linearGradient20604" id="linearGradient20558" gradientUnits="userSpaceOnUse" x1="25.802212" y1="20.373846" x2="25.111048" y2="58.912758"/>
    <linearGradient id="linearGradient20604">
      <stop id="stop20598" offset="0" style="stop-color:#3d3d3d;stop-opacity:1"/>
      <stop style="stop-color:#000000;stop-opacity:1" offset="0.61772454" id="stop20600"/>
      <stop id="stop20602" offset="1" style="stop-color:#3d3d3d;stop-opacity:1"/>
    </linearGradient>
    <filter inkscape:collect="always" style="color-interpolation-filters:sRGB" id="filter20720" x="-0.017024755" y="-0.016457183" width="1.0340491" height="1.0329144">
      <feGaussianBlur inkscape:collect="always" stdDeviation="0.14745661" id="feGaussianBlur20722"/>
    </filter>
    <linearGradient gradientTransform="translate(0.36067797,-0.13016949)" xlink:href="#linearGradient4555" id="linearGradient4557" x1="43.499737" y1="64.011795" x2="44.141731" y2="0.30621234" gradientUnits="userSpaceOnUse"/>
    <linearGradient id="linearGradient4555">
      <stop style="stop-color:#141618;stop-opacity:1" offset="0" id="stop4551"/>
      <stop id="stop4559" offset="0.51820582" style="stop-color:#686868;stop-opacity:1"/>
      <stop style="stop-color:#31363b;stop-opacity:1" offset="1" id="stop4553"/>
    </linearGradient>
    <filter style="color-interpolation-filters:sRGB" id="filter4601" x="-0.030244762" width="1.0604895" y="-0.030100647" height="1.0602013">
      <feGaussianBlur stdDeviation="0.014790289" id="feGaussianBlur4603"/>
    </filter>
    <linearGradient inkscape:collect="always" xlink:href="#linearGradient917" id="linearGradient919" x1="7.400631" y1="41.743092" x2="33.063145" y2="7.1074457" gradientUnits="userSpaceOnUse" gradientTransform="matrix(0.44253745,0,0,0.44253745,0.42214881,0.3526842)"/>
    <linearGradient id="a" gradientUnits="userSpaceOnUse" x1="16" x2="16" y1="30" y2="2">
      <stop offset="0" stop-color="#197cf1" id="stop2-8"/>
      <stop offset="1" stop-color="#20bcfa" id="stop4-8"/>
    </linearGradient>
    <linearGradient id="b" gradientUnits="userSpaceOnUse" x1="14" x2="25" y1="10" y2="21">
      <stop offset="0" stop-color="#292c2f" id="stop7"/>
      <stop offset="1" stop-opacity="0" id="stop9"/>
    </linearGradient>
    <linearGradient id="c" gradientUnits="userSpaceOnUse" x1="14" x2="14" y1="21" y2="9">
      <stop offset="0" stop-color="#7cbaf8" id="stop12"/>
      <stop offset="1" stop-color="#f4fcff" id="stop14"/>
    </linearGradient>
  </defs>
  <g transform="translate(1,1)">
    <rect style="display:inline;fill:url(#linearGradient919);fill-opacity:1;fill-rule:evenodd;stroke:none;stroke-width:0.410595;stroke-linejoin:round;stroke-miterlimit:7.8" id="rect1192" width="18.624012" height="18.901707" x="1.8218551" y="1.6884791" ry="0" inkscape:label="arriere"/>
    <g id="g850" transform="matrix(0.67177574,0,0,0.67177574,2.8325792,0.4369141)">
      <path d="M 16,2 C 12.59,3.806 9.18,4.544 5.77,5.23 V 18.693 C 5.77,22.463 11.296,27.611 16,30 20.704,27.611 26.23,22.463 26.23,18.693 V 5.231 C 22.82,4.544 19.41,3.806 16,2 Z" fill="url(#a)" id="path17" style="fill:url(#a)"/>
      <path d="m 16,9 -2,1 -1,2 v 3 h -2 v 6 l 9,9 h 6.219 L 26.243,18 18.121,9.879 Z" fill="url(#b)" opacity="0.2" id="path19" style="fill:url(#b)"/>
      <path d="m 16,9 a 3,3 0 0 0 -3,3 v 3 h -2 v 6 H 21 V 15 H 19 V 12 A 3,3 0 0 0 16,9 Z m 0,1 a 2,2 0 0 1 2,2 v 3 h -4 v -3 a 2,2 0 0 1 2,-2 z" fill="url(#c)" id="path21" style="fill:url(#c)"/>
      <path d="m 5.77,17.693 v 1 c 0,3.77 5.526,8.918 10.23,11.307 4.704,-2.389 10.23,-7.537 10.23,-11.307 v -1 C 26.23,21.463 20.704,26.611 16,29 11.296,26.611 5.77,21.463 5.77,17.693 Z" fill="#292c2f" opacity="0.2" id="path23"/>
    </g>
    <path style="display:inline;mix-blend-mode:normal;fill:url(#linearGradient3403);fill-opacity:1;stroke:url(#linearGradient20558);stroke-width:1.16242;stroke-linecap:butt;stroke-linejoin:round;stroke-miterlimit:4;stroke-dasharray:none;stroke-opacity:1;filter:url(#filter20720)" d="M 4.7043071,3.9814882 4.6913695,60.80196 H 58.59546 l 1.022155,-2.866369 c 0,0 -23.87537,0.766388 -32.844441,-4.140386 C 16.257548,48.042344 11.401114,4.0978197 11.401114,4.0978197 Z" id="path1686" sodipodi:nodetypes="ccccscc" transform="matrix(0.33273492,0,0,0.33273492,0.46627186,0.36369735)" inkscape:label="folder"/>
    <rect style="display:inline;fill:none;fill-opacity:1;stroke:url(#linearGradient4557);stroke-width:3.71366;stroke-linejoin:round;stroke-miterlimit:7.8;stroke-dasharray:none;stroke-opacity:0.995146;filter:url(#filter4601)" id="rect4539" width="62.567089" height="62.866646" x="1.0323594" y="0.59551275" ry="6.2447233" rx="5.8029528" transform="matrix(0.31170034,0,0,0.31106502,1.0253206,1.0360534)" inkscape:label="contour"/>
  </g>
</svg>

<svg width="24" height="24" version="1.1" viewBox="0 0 24 24" xmlns="http://www.w3.org/2000/svg" xmlns:xlink="http://www.w3.org/1999/xlink">
<defs>
<linearGradient id="linearGradient3403" x1="6.9492" x2="11.215" y1="4.5549" y2="59.052" gradientUnits="userSpaceOnUse">
<stop style="stop-color:#32373c" offset="0"/>
<stop style="stop-color:#1a1a1a" offset=".36805"/>
<stop style="stop-color:#31363b" offset="1"/>
</linearGradient>
<linearGradient id="linearGradient20558" x1="25.802" x2="25.111" y1="20.374" y2="58.913" gradientUnits="userSpaceOnUse">
<stop style="stop-color:#3d3d3d" offset="0"/>
<stop offset=".61772"/>
<stop style="stop-color:#3d3d3d" offset="1"/>
</linearGradient>
<linearGradient id="linearGradient4557" x1="43.5" x2="44.142" y1="64.012" y2=".30621" gradientTransform="translate(.36068 -.13017)" gradientUnits="userSpaceOnUse">
<stop style="stop-color:#141618" offset="0"/>
<stop style="stop-color:#686868" offset=".51821"/>
<stop style="stop-color:#31363b" offset="1"/>
</linearGradient>
<linearGradient id="linearGradient919" x1="7.4006" x2="33.063" y1="41.743" y2="7.1074" gradientTransform="matrix(.44254 0 0 .44254 .42215 .35268)" gradientUnits="userSpaceOnUse">
<stop style="stop-opacity:.99608" offset="0"/>
<stop style="stop-color:#353a3f;stop-opacity:.99608" offset="1"/>
</linearGradient>
<linearGradient id="a" x1="16" x2="16" y1="30" y2="2" gradientUnits="userSpaceOnUse">
<stop stop-color="#197cf1" offset="0"/>
<stop stop-color="#20bcfa" offset="1"/>
</linearGradient>
<linearGradient id="b" x1="14" x2="25" y1="10" y2="21" gradientUnits="userSpaceOnUse">
<stop stop-color="#292c2f" offset="0"/>
<stop stop-opacity="0" offset="1"/>
</linearGradient>
<linearGradient id="c" x1="14" x2="14" y1="21" y2="9" gradientUnits="userSpaceOnUse">
<stop stop-color="#7cbaf8" offset="0"/>
<stop stop-color="#f4fcff" offset="1"/>
</linearGradient>
</defs>
<g transform="translate(1,1)">
<rect x="1.8219" y="1.6885" width="18.624" height="18.902" ry="0" style="fill-rule:evenodd;fill:url(#linearGradient919)"/>
<g transform="matrix(.67178 0 0 .67178 2.8326 .43691)">
<path d="m16 2c-3.41 1.806-6.82 2.544-10.23 3.23v13.463c0 3.77 5.526 8.918 10.23 11.307 4.704-2.389 10.23-7.537 10.23-11.307v-13.462c-3.41-0.687-6.82-1.425-10.23-3.231z" fill="url(#a)" style="fill:url(#a)"/>
<path d="m16 9-2 1-1 2v3h-2v6l9 9h6.219l0.024-12-8.122-8.121z" fill="url(#b)" opacity=".2" style="fill:url(#b)"/>
<path d="m16 9a3 3 0 0 0-3 3v3h-2v6h10v-6h-2v-3a3 3 0 0 0-3-3zm0 1a2 2 0 0 1 2 2v3h-4v-3a2 2 0 0 1 2-2z" fill="url(#c)" style="fill:url(#c)"/>
<path d="m5.77 17.693v1c0 3.77 5.526 8.918 10.23 11.307 4.704-2.389 10.23-7.537 10.23-11.307v-1c0 3.77-5.526 8.918-10.23 11.307-4.704-2.389-10.23-7.537-10.23-11.307z" fill="#292c2f" opacity=".2"/>
</g>
<path transform="matrix(.33273 0 0 .33273 .46627 .3637)" d="m4.7043 3.9815-0.012938 56.82h53.904l1.0222-2.8664s-23.875 0.76639-32.844-4.1404c-10.516-5.7529-15.372-49.697-15.372-49.697z" style="fill:url(#linearGradient3403);mix-blend-mode:normal;stroke-linejoin:round;stroke-width:1.1624;stroke:url(#linearGradient20558)"/>
<rect transform="matrix(.3117 0 0 .31107 1.0253 1.0361)" x="1.0324" y=".59551" width="62.567" height="62.867" rx="5.803" ry="6.2447" style="fill:none;stroke-linejoin:round;stroke-miterlimit:7.8;stroke-opacity:.99515;stroke-width:3.7137;stroke:url(#linearGradient4557)"/>
</g>
</svg>
